X: 12006
T: Eonach Mhic Coilín
R: reel
M: 4/4
K: Edorian
BEGE DEGA|BEGE d2BA|BEGE DEGA|BddB A2GA:|
Beed BAGA|(3Bcd ef gfed|Beed BAGA|(3BAG dB A2GA|
Beed BAGA|(3Bcd ef ~g3a|bgaf gfed|eBdB A2GA||

